icon_installer/data/icons/scalable/actions/show-dialog-symbolic.svg

<?xml version="1.0" encoding="UTF-8"?>
<svg height="16px" viewBox="0 0 16 16" width="16px" xmlns="http://www.w3.org/2000/svg">
    <g fill="#222222">
        <path d="m 2 1.007812 c -0.550781 0 -1 0.449219 -1 1 v 1.984376 h 2 v -0.984376 h 9 v 0.992188 h 2 v -1.992188 c 0 -0.550781 -0.449219 -1 -1 -1 z m 10 12 v 0.992188 h -9 v -0.984375 h -2 v 1.984375 c 0 0.550781 0.449219 1 1 1 h 11 c 0.550781 0 1 -0.449219 1 -1 v -1.992188 z m 0 0" fill-opacity="0.34902"/>
        <path d="m 4 4 c -0.550781 0 -1 0.449219 -1 1 v 7.007812 c 0 0.550782 0.449219 1 1 1 h 7 c 0.550781 0 1 -0.449218 1 -1 v -7.007812 c 0 -0.550781 -0.449219 -1 -1 -1 z m 0 2 h 7 v 3.992188 h -7 z m 0 4.992188 h 3 v 1.007812 h -3 z m 4 0 h 3 v 1.007812 h -3 z m 0 0"/>
    </g>
</svg>

<svg xmlns="http://www.w3.org/2000/svg" width="16" height="16"><g fill="#222"><path fill-opacity=".349" d="M2 1.008c-.55 0-1 .449-1 1v1.984h2v-.984h9V4h2V2.008c0-.551-.45-1-1-1zm10 12V14H3v-.984H1V15c0 .55.45 1 1 1h11c.55 0 1-.45 1-1v-1.992zm0 0"/><path d="M4 4c-.55 0-1 .45-1 1v7.008c0 .55.45 1 1 1h7c.55 0 1-.45 1-1V5c0-.55-.45-1-1-1zm0 2h7v3.992H4zm0 4.992h3V12H4zm4 0h3V12H8zm0 0"/></g></svg>
